dist/intermediate-svg/file.svg

<?xml version="1.0" encoding="utf-8"?><svg width="10" height="12" fill="none" xmlns="http://www.w3.org/2000/svg" viewBox="0 0 10 12"><path d="M6.61035 3.5H9.36035C9.51035 3.5 9.61035 3.6 9.61035 3.75V11.5C9.61035 11.8 9.41035 12 9.11035 12H0.610352C0.310352 12 0.110352 11.8 0.110352 11.5V0.5C0.110352 0.2 0.310352 0 0.610352 0H5.86035C6.01035 0 6.11035 0.1 6.11035 0.25V3C6.11035 3.3 6.31035 3.5 6.61035 3.5ZM7.36035 2.5H9.61035L7.11035 0V2.25C7.11035 2.4 7.21035 2.5 7.36035 2.5Z" fill="#0094FF"/></svg>

<?xml version="1.0" encoding="utf-8"?><svg width="10" height="12" fill="none" xmlns="http://www.w3.org/2000/svg" viewBox="0 0 10 12"><path d="M6.61 3.5h2.75c.15 0 .25.1.25.25v7.75c0 .3-.2.5-.5.5H.61c-.3 0-.5-.2-.5-.5V.5c0-.3.2-.5.5-.5h5.25c.15 0 .25.1.25.25V3c0 .3.2.5.5.5zm.75-1h2.25L7.11 0v2.25c0 .15.1.25.25.25z" fill="#0094FF"/></svg>
